X: 11907
T: Emmentaler
R: mazurka
M: 3/4
K: Dmajor
FA|d>c df Ad|B2 G2 ce|g>f gb ag|fa d2 FA|
d>c df Ad|B2 G2 ce|1 g>f eb ac:|2 g>f eB Ac|d4||
|:FA|GE cA e2|dA fd A2|gf eB Ac|df Ad FA|
GE cA e2|dA fd A2|gf eB Ac|d4:|
K: G
|:Bc|dB g3d|cA a2 AB|dB ce dc|Bd GD Bc|
dB g3d|cA a2 AB|dB ce dF|G4:|
K: D
|:FG|A2 Bc de|fd gf ed|eA fe dc|df A2 A2|
A2 Bc de|fd gf ed|1 ce eb ac:|2 ce eB Ac|d4||

